Hatter-kde/actions/24/labplot-2x-zoom.svg

<svg xmlns="http://www.w3.org/2000/svg" viewBox="0 0 24 24">
  <defs id="defs3051">
    <style type="text/css" id="current-color-scheme">
      .ColorScheme-Text {
        color:#363636;
      }
      .ColorScheme-Highlight {
        color:#3daee9;
      }
      </style>
  </defs><g transform="translate(1,1)">
 <path 
     style="fill:currentColor;fill-opacity:1;stroke:none" 
     d="m 19.191702,18.828671 -5.87247,0 0,-0.910932 2.325911,-2.350202 q 1.050608,-1.062753 1.390689,-1.518219 0.340081,-0.455465 0.504048,-0.880567 0.170041,-0.425101 0.170041,-0.917004 0,-0.704453 -0.419029,-1.09919 -0.419028,-0.394737 -1.147773,-0.394737 -0.546559,0 -1.038462,0.182186 -0.48583,0.182187 -1.09919,0.661944 l -0.582996,-0.734818 q 1.244939,-1.0445346 2.720648,-1.0445346 1.238866,0 1.961539,0.6376516 0.728744,0.631579 0.728744,1.724697 0,0.582996 -0.21255,1.129554 -0.212551,0.540486 -0.637652,1.105264 -0.425101,0.558704 -1.427126,1.536437 l -1.852226,1.827935 0,0.04858 4.487854,0 0,0.995952 z"
     class="ColorScheme-Highlight"
     />
 <path 
     style="fill:currentColor;fill-opacity:1;stroke:none" 
     d="M 3,3 3,5 4,5 4,4 5,4 5,3 3,3 Z m 5,0 0,1 2,0 0,-1 -2,0 z m 4,0 0,1 2,0 0,-1 -2,0 z m 5,0 0,1 1,0 0,1 1,0 0,-2 -2,0 z M 9,7 9,8 11.292969,8 8,11.292969 8.707031,12 12,8.7070312 12,11 13,11 13,7 12,7 9,7 Z M 3,8 3,10 4,10 4,8 3,8 Z m 0,5 0,6 6,0 0,-6 -6,0 z m 1,1 4,0 0,4 -4,0 0,-4 z"
     class="ColorScheme-Text"
     />
</g></svg>

<?xml version="1.0" encoding="UTF-8"?>
<svg viewBox="0 0 24 24" xmlns="http://www.w3.org/2000/svg">
 <defs id="defs3051">
  <style id="current-color-scheme" type="text/css">.ColorScheme-Text {
        color:#363636;
      }
      .ColorScheme-Highlight {
        color:#3daee9;
      }</style>
 </defs>
 <g transform="translate(1,1)" fill="currentColor">
  <path class="ColorScheme-Highlight" d="m19.192 18.829h-5.8725v-0.91093l2.3259-2.3502q1.0506-1.0628 1.3907-1.5182 0.34008-0.45546 0.50405-0.88057 0.17004-0.4251 0.17004-0.917 0-0.70445-0.41903-1.0992-0.41903-0.39474-1.1478-0.39474-0.54656 0-1.0385 0.18219-0.48583 0.18219-1.0992 0.66194l-0.583-0.73482q1.2449-1.0445 2.7206-1.0445 1.2389 0 1.9615 0.63765 0.72874 0.63158 0.72874 1.7247 0 0.583-0.21255 1.1296-0.21255 0.54049-0.63765 1.1053-0.4251 0.5587-1.4271 1.5364l-1.8522 1.8279v0.04858h4.4879v0.99595z"/>
  <path class="ColorScheme-Text" d="m3 3v2h1v-1h1v-1h-2zm5 0v1h2v-1h-2zm4 0v1h2v-1h-2zm5 0v1h1v1h1v-2h-2zm-8 4v1h2.293l-3.293 3.293 0.70703 0.70703 3.293-3.293v2.293h1v-4h-1-3zm-6 1v2h1v-2h-1zm0 5v6h6v-6h-6zm1 1h4v4h-4v-4z"/>
 </g>
</svg>
